austria/municipalities/41719.svg

<?xml version="1.0" encoding="UTF-8"?>
<!DOCTYPE svg PUBLIC "-//W3C//DTD SVG 1.1//EN" "http://www.w3.org/Graphics/SVG/1.1/DTD/svg11.dtd">
<svg xmlns="http://www.w3.org/2000/svg" version="1.1" width="166px" height="207px" style="shape-rendering:geometricPrecision; text-rendering:geometricPrecision; image-rendering:optimizeQuality; fill-rule:evenodd; clip-rule:evenodd" xmlns:xlink="http://www.w3.org/1999/xlink">
<g><path style="opacity:1" fill="#000000" d="M -0.5,-0.5 C 54.8333,-0.5 110.167,-0.5 165.5,-0.5C 165.5,44.8333 165.5,90.1667 165.5,135.5C 160.391,165.452 144.058,186.952 116.5,200C 109.484,202.508 102.484,204.675 95.5,206.5C 86.8333,206.5 78.1667,206.5 69.5,206.5C 30.2166,197.885 6.88331,173.885 -0.5,134.5C -0.5,89.5 -0.5,44.5 -0.5,-0.5 Z"/></g>
<g><path style="opacity:1" fill="#00612a" d="M 3.5,3.5 C 56.1667,3.5 108.833,3.5 161.5,3.5C 161.667,48.5012 161.5,93.5012 161,138.5C 160.484,144.491 158.484,149.824 155,154.5C 145.966,148.321 135.966,144.654 125,143.5C 114.332,144.5 104.165,147.333 94.5,152C 90.4534,153.461 86.2867,154.294 82,154.5C 68.5865,151.458 55.2532,148.125 42,144.5C 30.5771,145.419 19.9104,148.752 10,154.5C 9.5,154.167 9,153.833 8.5,153.5C 6.43401,148.343 4.93401,143.01 4,137.5C 3.50001,92.8346 3.33334,48.1679 3.5,3.5 Z"/></g>
<g><path style="opacity:1" fill="#000000" d="M 102.5,98.5 C 99.366,101.38 97.866,105.047 98,109.5C 97.2151,118.487 96.7151,127.487 96.5,136.5C 98.1667,136.5 99.8333,136.5 101.5,136.5C 101.799,138.604 101.466,140.604 100.5,142.5C 97.709,137.184 96.0423,137.184 95.5,142.5C 94.8076,141.975 94.3076,141.308 94,140.5C 92.6667,141.833 91.3333,141.833 90,140.5C 88.647,141.685 87.4803,143.019 86.5,144.5C 83.8084,141.923 81.975,142.589 81,146.5C 80.9646,140.222 79.6312,139.889 77,145.5C 75.883,144.051 75.2163,142.384 75,140.5C 70.5952,145.706 69.0952,145.206 70.5,139C 73.38,138.316 76.2134,138.483 79,139.5C 80.2853,139.05 81.452,138.383 82.5,137.5C 85.0014,130.504 86.6681,123.504 87.5,116.5C 86.9482,110.98 84.4482,106.646 80,103.5C 78.3806,96.88 74.2139,93.0467 67.5,92C 58.0602,86.5513 53.8936,78.3847 55,67.5C 57.1299,60.11 59.4632,52.7766 62,45.5C 62.8372,41.7054 62.5039,38.0387 61,34.5C 54.3869,33.6152 47.8869,34.4485 41.5,37C 31.6748,39.545 22.6748,43.7117 14.5,49.5C 14.1667,49.1667 13.8333,48.8333 13.5,48.5C 25.2223,36.1385 39.5556,28.8052 56.5,26.5C 57.6869,19.2342 62.0202,16.4008 69.5,18C 73.0094,18.4219 76.3428,19.4219 79.5,21C 81.0412,22.5793 82.2078,24.4127 83,26.5C 83.9169,35.3282 83.0835,43.9948 80.5,52.5C 80.3898,54.374 81.0564,55.874 82.5,57C 88.6835,57.0138 94.6835,58.0138 100.5,60C 103.997,62.583 107.664,64.9164 111.5,67C 119.19,68.3581 126.857,68.8581 134.5,68.5C 133.352,70.1487 132.019,71.6487 130.5,73C 134.167,73.3333 137.833,73.6667 141.5,74C 139.833,76.3333 137.833,78.3333 135.5,80C 140.784,81.547 146.118,82.8804 151.5,84C 147.924,86.1899 144.257,88.1899 140.5,90C 136.459,90.1735 132.459,90.6735 128.5,91.5C 127.315,92.853 125.981,94.0197 124.5,95C 119.833,95.3333 115.167,95.6667 110.5,96C 108.231,98.0229 105.564,98.8563 102.5,98.5 Z"/></g>
<g><path style="opacity:1" fill="#fefefe" d="M 102.5,98.5 C 100.143,98.3367 97.8098,98.5034 95.5,99C 97.3963,100.065 97.563,100.898 96,101.5C 92.9298,100.924 90.2631,99.5909 88,97.5C 87.4926,98.9961 87.9926,100.163 89.5,101C 91.7148,102.044 94.0481,102.71 96.5,103C 92.9583,103.851 89.6249,103.351 86.5,101.5C 86.1667,101.833 85.8333,102.167 85.5,102.5C 91.9572,106.762 91.2905,107.429 83.5,104.5C 82.2124,100.966 80.5458,97.633 78.5,94.5C 75.3932,92.622 72.7265,90.2887 70.5,87.5C 69.7492,88.376 69.2492,89.376 69,90.5C 61.7651,86.8653 57.5984,81.0319 56.5,73C 58.9805,62.569 61.6472,52.2357 64.5,42C 64.8716,36.743 62.8716,32.743 58.5,30C 59.5733,28.7496 59.5733,27.4162 58.5,26C 59.0604,22.6895 60.8937,20.5229 64,19.5C 77.4848,18.9799 83.1514,25.3132 81,38.5C 79.9938,43.7047 78.8271,48.8714 77.5,54C 77.9031,55.4728 78.5697,56.8061 79.5,58C 86.2113,58.9766 92.878,60.3099 99.5,62C 109.606,71.3818 121.606,76.3818 135.5,77C 133.884,78.0771 132.051,78.5771 130,78.5C 122.441,77.2672 114.941,76.1005 107.5,75C 114.176,78.0861 121.176,80.0861 128.5,81C 116.26,87.5233 103.26,89.8566 89.5,88C 78.8803,85.069 74.3803,78.2357 76,67.5C 72.0572,78.851 75.8905,86.351 87.5,90C 98.0607,92.2068 108.394,91.3734 118.5,87.5C 121.07,88.6169 123.737,89.4503 126.5,90C 125.833,90.6667 125.167,91.3333 124.5,92C 116.124,91.1168 108.79,93.2835 102.5,98.5 Z"/></g>
<g><path style="opacity:1" fill="#000000" d="M 65.5,28.5 C 64.2121,26.9652 64.2121,25.2985 65.5,23.5C 68.8316,21.996 71.1649,22.996 72.5,26.5C 70.7938,30.5245 68.4605,31.1911 65.5,28.5 Z"/></g>
<g><path style="opacity:1" fill="#fefffe" d="M 65.5,28.5 C 65.942,24.1534 66.7753,23.82 68,27.5C 69.9076,24.6677 70.741,25.001 70.5,28.5C 68.8333,28.5 67.1667,28.5 65.5,28.5 Z"/></g>
<g><path style="opacity:1" fill="#fefffe" d="M 116.5,70.5 C 116.917,69.8761 117.584,69.5427 118.5,69.5C 122.471,70.1972 126.471,70.6972 130.5,71C 125.794,72.8786 121.127,72.7119 116.5,70.5 Z"/></g>
<g><path style="opacity:1" fill="#fefffe" d="M 132.5,81.5 C 148.399,84.6207 148.399,85.454 132.5,84C 131.833,83.6667 131.167,83.3333 130.5,83C 131.416,82.7216 132.082,82.2216 132.5,81.5 Z"/></g>
<g><path style="opacity:1" fill="#fefffe" d="M 126.5,84.5 C 130.454,85.7719 134.454,86.9386 138.5,88C 133.239,88.8611 128.239,88.1944 123.5,86C 124.737,85.7679 125.737,85.2679 126.5,84.5 Z"/></g>
<g><path style="opacity:1" fill="#00612a" d="M 92.5,105.5 C 93.1599,106.964 93.4932,108.631 93.5,110.5C 93.5877,112.712 93.0877,114.712 92,116.5C 91.22,113.743 90.72,110.909 90.5,108C 91.3805,107.292 92.0472,106.458 92.5,105.5 Z"/></g>
<g><path style="opacity:1" fill="#00612a" d="M 91.5,118.5 C 92.9517,120.848 93.6183,123.514 93.5,126.5C 93.701,130.228 92.701,133.561 90.5,136.5C 89.069,136.023 87.7357,135.357 86.5,134.5C 88.753,129.333 90.4197,124 91.5,118.5 Z"/></g>
<g><path style="opacity:1" fill="#fefffe" d="M -0.5,134.5 C 6.88331,173.885 30.2166,197.885 69.5,206.5C 46.1667,206.5 22.8333,206.5 -0.5,206.5C -0.5,182.5 -0.5,158.5 -0.5,134.5 Z"/></g>
<g><path style="opacity:1" fill="#fefffe" d="M 165.5,135.5 C 165.5,159.167 165.5,182.833 165.5,206.5C 142.167,206.5 118.833,206.5 95.5,206.5C 102.484,204.675 109.484,202.508 116.5,200C 144.058,186.952 160.391,165.452 165.5,135.5 Z"/></g>
<g><path style="opacity:1" fill="#fefffe" d="M 116.5,146.5 C 130.725,145.186 143.392,149.02 154.5,158C 152.997,160.986 151.331,163.819 149.5,166.5C 143.017,161.059 135.517,158.059 127,157.5C 111.616,160.296 96.2823,163.296 81,166.5C 71.0228,165.261 61.5228,162.428 52.5,158C 45.4022,155.928 38.4022,156.261 31.5,159C 26.4253,161.62 21.2587,164.12 16,166.5C 15.228,166.355 14.5613,166.022 14,165.5C 12.2776,162.721 11.1109,159.721 10.5,156.5C 17.1035,153.909 23.7702,151.409 30.5,149C 37.8174,147.108 45.1507,147.108 52.5,149C 59.0914,151.531 65.758,153.864 72.5,156C 78.1667,156.667 83.8333,156.667 89.5,156C 98.8012,153.333 107.801,150.166 116.5,146.5 Z"/></g>
<g><path style="opacity:1" fill="#002b72" d="M 39.5,159.5 C 44.2318,159.378 48.8984,159.878 53.5,161C 62.0662,165.696 71.2329,168.529 81,169.5C 93.6746,167.54 106.175,164.707 118.5,161C 130.114,158.43 139.781,161.43 147.5,170C 145.681,172.489 143.848,174.989 142,177.5C 136.643,173.073 130.476,170.74 123.5,170.5C 112.415,171.882 101.748,174.715 91.5,179C 79.6258,180.782 68.2925,179.115 57.5,174C 46.0049,170.308 34.8383,171.142 24,176.5C 21.7194,175.224 19.7194,173.557 18,171.5C 17.2506,170.365 17.4173,169.365 18.5,168.5C 25.2054,164.643 32.2054,161.643 39.5,159.5 Z"/></g>
<g><path style="opacity:1" fill="#fefffe" d="M 116.5,173.5 C 124.45,172.414 131.783,173.914 138.5,178C 139.641,178.741 139.641,179.575 138.5,180.5C 118.928,199.391 95.595,206.558 68.5,202C 51.4878,199.227 37.1544,191.561 25.5,179C 34.7993,174.625 44.466,173.625 54.5,176C 63.2836,179.817 72.4503,181.984 82,182.5C 94.0363,181.117 105.536,178.117 116.5,173.5 Z"/></g>
</svg>

<svg xmlns="http://www.w3.org/2000/svg" width="166" height="207" style="shape-rendering:geometricPrecision;text-rendering:geometricPrecision;image-rendering:optimizeQuality;fill-rule:evenodd;clip-rule:evenodd"><path style="opacity:1" d="M-.5-.5h166v136c-5.109 29.952-21.442 51.452-49 64.5a250.624 250.624 0 0 1-21 6.5h-26c-39.283-8.615-62.617-32.615-70-72V-.5z"/><path style="opacity:1" fill="#00612a" d="M3.5 3.5h158c.167 45.001 0 90.001-.5 135-.516 5.991-2.516 11.324-6 16-9.034-6.179-19.034-9.846-30-11-10.668 1-20.835 3.833-30.5 8.5a42.633 42.633 0 0 1-12.5 2.5 937.571 937.571 0 0 1-40-10c-11.423.919-22.09 4.252-32 10l-1.5-1a77.912 77.912 0 0 1-4.5-16c-.5-44.665-.667-89.332-.5-134z"/><path style="opacity:1" d="M102.5 98.5c-3.134 2.88-4.634 6.547-4.5 11a427.465 427.465 0 0 0-1.5 27h5a9.86 9.86 0 0 1-1 6c-2.791-5.316-4.458-5.316-5 0a4.451 4.451 0 0 1-1.5-2c-1.333 1.333-2.667 1.333-4 0a19.897 19.897 0 0 0-3.5 4c-2.692-2.577-4.525-1.911-5.5 2-.035-6.278-1.369-6.611-4-1-1.117-1.449-1.784-3.116-2-5-4.405 5.206-5.905 4.706-4.5-1.5 2.88-.684 5.713-.517 8.5.5a11.064 11.064 0 0 0 3.5-2c2.501-6.996 4.168-13.996 5-21-.552-5.52-3.052-9.854-7.5-13-1.62-6.62-5.786-10.453-12.5-11.5-9.44-5.449-13.606-13.615-12.5-24.5a420.962 420.962 0 0 1 7-22c.837-3.795.504-7.461-1-11-6.613-.885-13.113-.051-19.5 2.5-9.825 2.545-18.825 6.712-27 12.5l-1-1c11.722-12.361 26.056-19.695 43-22 1.187-7.266 5.52-10.1 13-8.5a30.288 30.288 0 0 1 10 3 15.83 15.83 0 0 1 3.5 5.5c.917 8.828.084 17.495-2.5 26-.11 1.874.556 3.374 2 4.5a55.713 55.713 0 0 1 18 3 94.037 94.037 0 0 0 11 7c7.69 1.358 15.357 1.858 23 1.5a25.534 25.534 0 0 1-4 4.5l11 1a25.647 25.647 0 0 1-6 6 206.891 206.891 0 0 0 16 4 124.653 124.653 0 0 1-11 6 74.197 74.197 0 0 0-12 1.5 19.897 19.897 0 0 1-4 3.5l-14 1c-2.269 2.023-4.936 2.856-8 2.5z"/><path style="opacity:1" fill="#fefefe" d="M102.5 98.5a24.938 24.938 0 0 0-7 .5c1.896 1.065 2.063 1.898.5 2.5-3.07-.576-5.737-1.91-8-4-.507 1.496-.007 2.663 1.5 3.5a22.507 22.507 0 0 0 7 2c-3.542.851-6.875.351-10-1.5l-1 1c6.457 4.262 5.79 4.929-2 2a48.752 48.752 0 0 0-5-10 30.011 30.011 0 0 1-8-7 6.807 6.807 0 0 0-1.5 3c-7.235-3.635-11.402-9.468-12.5-17.5a834.85 834.85 0 0 1 8-31c.372-5.257-1.628-9.257-6-12 1.073-1.25 1.073-2.584 0-4 .56-3.31 2.394-5.477 5.5-6.5 13.485-.52 19.151 5.813 17 19A255.282 255.282 0 0 1 77.5 54a11.292 11.292 0 0 0 2 4 193.49 193.49 0 0 1 20 4c10.106 9.382 22.106 14.382 36 15-1.616 1.077-3.449 1.577-5.5 1.5-7.559-1.233-15.059-2.4-22.5-3.5a70.573 70.573 0 0 0 21 6c-12.24 6.523-25.24 8.857-39 7-10.62-2.931-15.12-9.764-13.5-20.5-3.943 11.351-.11 18.851 11.5 22.5 10.56 2.207 20.894 1.373 31-2.5a39.209 39.209 0 0 0 8 2.5l-2 2c-8.376-.883-15.71 1.284-22 6.5z"/><path style="opacity:1" d="M65.5 28.5c-1.288-1.535-1.288-3.201 0-5 3.332-1.504 5.665-.504 7 3-1.706 4.024-4.04 4.691-7 2z"/><path style="opacity:1" fill="#fefffe" d="M65.5 28.5c.442-4.347 1.275-4.68 2.5-1 1.908-2.832 2.741-2.499 2.5 1h-5zM116.5 70.5c.417-.624 1.084-.957 2-1 3.971.697 7.971 1.197 12 1.5-4.706 1.879-9.373 1.712-14-.5zM132.5 81.5c15.899 3.12 15.899 3.954 0 2.5l-2-1c.916-.278 1.582-.778 2-1.5zM126.5 84.5a228.638 228.638 0 0 0 12 3.5c-5.261.861-10.261.194-15-2 1.237-.232 2.237-.732 3-1.5z"/><path style="opacity:1" fill="#00612a" d="M92.5 105.5c.66 1.464.993 3.131 1 5 .088 2.212-.412 4.212-1.5 6a43.08 43.08 0 0 1-1.5-8.5c.88-.708 1.547-1.542 2-2.5zM91.5 118.5c1.452 2.348 2.118 5.014 2 8 .201 3.728-.799 7.061-3 10a15.685 15.685 0 0 1-4-2 77.09 77.09 0 0 0 5-16z"/><path style="opacity:1" fill="#fefffe" d="M-.5 134.5c7.383 39.385 30.717 63.385 70 72h-70v-72zM165.5 135.5v71h-70a250.624 250.624 0 0 0 21-6.5c27.558-13.048 43.891-34.548 49-64.5z"/><path style="opacity:1" fill="#fefffe" d="M116.5 146.5c14.225-1.314 26.892 2.52 38 11.5a74.198 74.198 0 0 1-5 8.5c-6.483-5.441-13.983-8.441-22.5-9a1743.996 1743.996 0 0 0-46 9 89.196 89.196 0 0 1-28.5-8.5c-7.098-2.072-14.098-1.739-21 1a333.745 333.745 0 0 1-15.5 7.5 3.944 3.944 0 0 1-2-1 26.211 26.211 0 0 1-3.5-9 708.196 708.196 0 0 1 20-7.5c7.317-1.892 14.65-1.892 22 0a354.257 354.257 0 0 0 20 7 72.464 72.464 0 0 0 17 0 239.281 239.281 0 0 0 27-9.5z"/><path style="opacity:1" fill="#002b72" d="M39.5 159.5a53.068 53.068 0 0 1 14 1.5c8.566 4.696 17.733 7.529 27.5 8.5a277.041 277.041 0 0 0 37.5-8.5c11.614-2.57 21.281.43 29 9a2778.897 2778.897 0 0 1-5.5 7.5c-5.357-4.427-11.524-6.76-18.5-7a121.542 121.542 0 0 0-32 8.5c-11.874 1.782-23.207.115-34-5-11.495-3.692-22.662-2.858-33.5 2.5a21.376 21.376 0 0 1-6-5c-.75-1.135-.583-2.135.5-3 6.705-3.857 13.705-6.857 21-9z"/><path style="opacity:1" fill="#fefffe" d="M116.5 173.5c7.95-1.086 15.283.414 22 4.5 1.141.741 1.141 1.575 0 2.5-19.572 18.891-42.905 26.058-70 21.5-17.012-2.773-31.346-10.439-43-23 9.3-4.375 18.966-5.375 29-3a79.18 79.18 0 0 0 27.5 6.5c12.036-1.383 23.536-4.383 34.5-9z"/></svg>
